apps/app.mento.org/public/tokens/cNGN.svg

<svg width="40" height="40" viewBox="0 0 40 40" fill="none" xmlns="http://www.w3.org/2000/svg">
<g clip-path="url(#clip0_4059_20094)">
<path d="M20 40C31.0457 40 40 31.0457 40 20C40 8.95431 31.0457 0 20 0C8.95431 0 0 8.95431 0 20C0 31.0457 8.95431 40 20 40Z" fill="#B781FE"/>
<path d="M20.8012 22.8333V17.0742H19.0533V15.64H20.8012V13.8025H19.0533V12.3683H20.8012V6.83331H23.1318L25.2606 12.3683H27.9049V6.83331H29.6752V12.3683H31.4231V13.8025H29.6752V15.64H31.4231V17.0742H29.6752V22.8333H27.3223L25.1934 17.0742H22.5491V22.8333H20.8012ZM22.5043 12.3683H23.4455L22.5043 9.58962H22.4147L22.5043 12.3683ZM22.5491 15.64H24.6556L23.9833 13.8025H22.5043L22.5491 15.64ZM26.4483 15.64H27.9497L27.9049 13.8025H25.776L26.4483 15.64ZM27.9049 19.6736H27.9945L27.9273 17.0742H26.9861L27.9049 19.6736Z" fill="#070010"/>
<path d="M19.3655 30.5103C14.9063 30.5103 11.2615 26.8663 11.2615 22.4063C11.2615 19.2415 13.0839 16.4599 15.7687 15.1655V12.2407C11.5967 13.7271 8.57593 17.7071 8.57593 22.4063C8.57593 28.3527 13.4191 33.1959 19.3655 33.1959C24.0647 33.1959 28.0447 30.1751 29.5311 26.0031H26.6063C25.3119 28.6887 22.5303 30.5103 19.3655 30.5103Z" fill="#070010"/>
</g>
<defs>
<clipPath id="clip0_4059_20094">
<rect width="40" height="40" fill="white"/>
</clipPath>
</defs>
</svg>

<svg xmlns="http://www.w3.org/2000/svg" width="40" height="40" fill="none" viewBox="0 0 40 40"><g clip-path="url(#a)"><path fill="#B781FE" d="M20 40c11.046 0 20-8.954 20-20S31.046 0 20 0 0 8.954 0 20s8.954 20 20 20"/><path fill="#070010" d="M20.801 22.833v-5.759h-1.748V15.64h1.748v-1.838h-1.748v-1.434h1.748V6.833h2.33l2.13 5.535h2.644V6.833h1.77v5.535h1.748v1.435h-1.748v1.837h1.748v1.434h-1.748v5.76h-2.353l-2.129-5.76H22.55v5.76zm1.703-10.465h.941l-.94-2.778h-.09zm.045 3.272h2.107l-.673-1.838h-1.479zm3.9 0h1.5l-.044-1.838h-2.129zm1.456 4.034h.09l-.068-2.6h-.94z"/><path fill="#070010" d="M19.366 30.51c-4.46 0-8.104-3.644-8.104-8.104 0-3.165 1.822-5.946 4.507-7.24V12.24c-4.172 1.486-7.193 5.466-7.193 10.165 0 5.947 4.843 10.79 10.79 10.79 4.699 0 8.679-3.02 10.165-7.193h-2.925c-1.294 2.686-4.076 4.507-7.24 4.507"/></g><defs><clipPath id="a"><path fill="#fff" d="M0 0h40v40H0z"/></clipPath></defs></svg>
